X: 15300
T: Girls Of Banbridge, The
R: jig
M: 6/8
K: Dmajor
|:B|AFA dcB|BAG FED|FAD FED|CEE EFG|
A3 dcB|BAG FED|f2f gec|edc d2:|
|:B|AFA dfa|agf efg|f2f ged|cee e2 B|
AFA dfa|agf efg|faf gec|edc d2:|

